X:1
T:Wolverton Mountain
T:Wolverton Mountain
T:unknown
C:Merle Kilgore, Claude King
Z:All Rights Reserved
L:1/4
M:4/4
K:F
V:1 treble 
%%MIDI program 4
V:1
 z A"C7" A G |"F" F4- | F A A/A/"Bb" B |"C7" A G3- | G2 E"Gm" F |"C7" G C3- | C2 A G |"F" F4- | %8
w: They say don't|go|* on Wol- ver- ton|Moun- tain|* if you're|look- ing|* for a|wife|
 F A"C7" A G |"F" F A3- | A A/A/ A/A/"Bb" B |"C7" A G3- | G E E"Gm" F |"C7" G C3- | %14
w: * cause Clif- ton|Clow- ers|* has a pret- ty young|daugh- ter|* he's migh- ty|han- dy|
 C"C" A/A/"F" A/F/"C7"G/E/ |"F" F4- |"Bb" F"F" z z2 || z A"Bb" B A |"C7" G4- | G G A/A/ B | %20
w: * with a gun * and a|knife||her ten- der|lips|* are swee- ter than|
"F" d2 c2- | c c c/c/"F7" c |"G7" =B2 B2- | B =B c d |"C" c4- |"Bb" c"C7" A A/C/ G |"F" F2 A2- | %27
w: hon- ey|* and Wol- ver- ton|moun- tain|* pro- tects her|there|* the birds and the|birds *|
 A F A"Bb" B |"C7" A G3- | G2 E"Gm7" F |"C7" G C3- | C G A G |1"F" F4- |"Bb" F"F" z z2 :|2 %34
w: * tell Clif- ton|Clow- ers|* if a|stran- ger|* should wan- der|there||
"F" F4- ||"Bb" F C A A |"C7" G/G/ G G G | A G C E/E/ |"F" F F F F |"Bb" D"F" C D C/C/ | %40
w: there|* But I don't|care a- bout Clif- ton|Clow- ers I"m gon- na|climb up- on his|moun- tain I'm go na|
"C7" G G G G | A G A G |"F" F/F/ F F F |"Bb" D"F" C D/D/C/C/ |"C7" C C E G |"F" A G D E | %46
w: take the girl I|love I don't care|a- bout Clif- ton Clow-|ers * I"m a gon- na|climb up- on his|moun- tain and I'll|
"F" F F F F | F4 |] %48
w: get the one I|love.|

